X:1
T:Valse Op.69 No.2
T:Valse 
T:Op. 69, Nr. 2 1829 
T:Frédéric Chopin (1810-1849)
T:Public Domain
T:Public Domain
T:Public Domain
C:Frédéric Chopin
C:(1810-1849)
Z:Public Domain
%%score { ( 1 4 ) | ( 2 3 ) }
L:1/8
Q:1/4=79
M:3/4
K:D
V:1 treble nm="Piano"
V:4 treble 
V:2 bass 
V:3 bass 
V:1
 (!>!!4!f2 ||S!p!!ped! (f)gf!2!c!3!d!ped-up!!1!B |: !2!^A4) (!>!!4!f2- |!p! fgfced | %4
 !1!B4) (!>!!2!f2- |!p!!<(! fg!1!^ef!4!b!5!d')!<)! |!f! (!4!d'2 ^e2) ((!>!!5!d'2 | %7
!f! d'2) =e2) ((!>!c'2 |!>(! c')b^a!1!g!4!f!2!c)!>)! |!p! (!1!d!5!g!4!f!2!c!3!d!1!B | %10
 !2!^A4) (!>!!4!f2- |!p! fgf!2!c!3!e!2!d | B4) (f2 | %13
!p! (f)!<(!{/f} !5!f'!p!!3!c'!4!d'!2!^a!5!b!<)! |!f! !4!=ag[Q:1/4=70]!1!Bcde | %15
!>(! !5!g!4!f!1!B!3!dcF!>)! |1 %16
!mp!!>(! !3!B)!ped!!mf!!1!^EF[Q:1/4=79]^A!1!B[Q:1/4=79]!2!c!>)!!ped-up! | %17
!p!!ped! !1!dgf!2!c!3!d!ped-up!B :|2 B2 z[Q:1/4=79] (!1!F!4!B!3!_B) | %19
[Q:1/4=89] !2!_B3!ped!!<(! (Ac!ped-up!e!<)! ||!f!!>(! !5!g3 f!>)!!mp!cd) | (!4!f3 eBc) | %22
 (!4!e3 dcB) | (!2!B3!<(! Ace!<)! |!f!!>(! !5!g3!mp! f!>)!cd) | (!4!f3 eB!4!c) | %26
[Q:1/4=79] (!2!^A3 c!1!Gc) |[Q:1/4=89] (F3!ped!!<(! ^Ace!<)!!ped-up! |!f!!>(! g3 f!>)!!mp!cd) | %29
!f!!>(! (f3 eB!mp!c)!>)! |!f!!>(! (e3 dc!mp!B)!>)! |!mp! (B3!<(! Ace!<)! |!f!!>(! g3 fc!mp!d!>)! | %33
 (!^!f3) !1!e)!f!!>(!(!5!f'e' | d'^c'!1!=c'!3!b!2!_b!1!a | !3!^g=g!4!fcd!1!B!>)! | %36
!p! ^A2) z2 (!5!=a2 |!p! ^g=g!2!f!1!c!3!e!2!d) | B2 z2 (!4!a2 |!p!!<(! ^g=g!1!^ef!4!b!5!d')!<)! | %40
!f! (d'2 ^e2) (!>!d'2- | d'2 =e2) (!>!!4!c'2 | !4!=c'b!>(!^a!1!=a!4!^g=g | f!1!=f!4!edc!1!B!>)! | %44
!p! !2!^A4) (!>!g2 |!p! fgfced | B4) (!>!f2 |!p!!f! f'c'd'!2!^a!5!b!2!f | =agBceg | %49
 !4!gf!>(!B!3!d[Q:1/4=79]c!1!F |[Q:1/4=70] B2) z2!>)!!fine! ||[K:B][Q:1/4=79]!mf! F2 | %52
 (!3!ded!1!cde) |!>(! (g4!p! f2)!>)! |!mf! (!2!ded!1!cd!1!e) |!>(! (!3!g4!p! !2!f2)!>)! | %56
!mf! (f2 !4!d'>)!3!d' !>!!4!d'2 |!mf! (!3!c'2 !1!e>)!2!e !>!!1!e2 | %58
!mf! (!2!d2 !5!b>)!4!b !>!!5!b2 |!mf! (!4!a2 !1!c>)!2!c !>!!4!e2 |!mf! (!3!ded!1!cde) | %61
!>(! (g4!p! f2)!>)! |!mf! (!2!dedcd!1!e) |!>(! !4!g4!p! !3!f2!>)! |!mf! !2!d2 !5!b>!4!b !>!!5!b2 | %65
!mf! !4!a2 !1!c>!3!c !>!!2!c2 |!mf! !1!B2 !4!g>!3!g !>!!4!g2 |!mf! !3!f2 !1!A>!2!A !>!e2 | %68
!mf! (!2!!4![Bd]!3!!5![ce][Bd]!1!!3![Fc][Bd][ce]) |!>(! (!1!!4![Ag]4!p! !1!!3![Af]2)!>)! | %70
!mf! ([Bd][ce][Bd][Fc][Bd][ce]) |!>(! ([Ag]4!p! [Af]2)!>)! | %72
!mf! (!1!!2![df]2 !2!!5![fd']>)!5![fd'] !>!!1!!5![fd']2 | %73
!mf! (!2!!5![ec']2 !1!!2![ce]>)!2!!3![ce] !>!!1!!2!!3!!4![ce]2 | %74
!mf! (!2!!1![Bd]2 !2!!5![db]>)[db] !>!!1!!5![db]2 | %75
!mf! (!2!!5![ca]2 !1!!2![Ac]>)!2!!3![Ac] !>!!3!!5![ce]2 | %76
!mf!!<(! ([B=d][ce][B=d][Fc][B=d][ce])!<)! |!f!!>(! ([A=g]4!p! [Af]2)!>)! | %78
 ([B=d]!mf![ce][B=d][Fc][B=d][ce]) |!>(! ([A=g]4 [Af]2) | %80
 (!5![=df]2 !1!!4![Fe])z/(!1!!5![Fe]/ !2!!4![Bd]2) | %81
 (!3!!5![B=d]2!>)! !1!!4![^Ec])z/(!1!!5![Ec]/ [=EB]2) |!p! A2!ped! (c4 | %83
!p! c2)!ped! z2!ped-up! !4!f2!D.S.! |] %84
V:2
 z2 || B,,2 [F,B,D]2 [F,B,D]2 |: C,2 [F,CE]2 [F,CE]2 | ^A,,2 [F,CE]2 [F,CE]2 | %4
 B,,2 [F,B,D]2 [F,B,D]2 | B,,2 [F,B,D]2 [F,B,D]2 | B,,2 [^G,B,D]2 [G,B,D]2 | %7
 B,,2 [=G,B,E]2 [G,B,E]2 | B,,2 [F,CE]2 [F,^A,E]2 | B,,2 [F,B,D]2 [F,B,D]2 | C,2 [F,CE]2 [F,CE]2 | %11
 F,,2 [F,^A,E]2 [F,A,E]2 | B,,2 [F,B,D]2 [F,B,D]2 | D,2 [F,B,D]2 [F,B,D]2 | E,2 [B,CG]2 z2 | %15
 F,2 [B,D]2 [^A,E]2 |1 [B,D]2 B,,2 z2 | B,,2 [F,B,D]2 [F,B,D]2 :|2 B,,2 [F,D] z D,2 | %19
 C,2 [G,A,G]2 [G,A,G]2 || D,2 [F,A,D]2 [F,A,D]2 | A,,2 [A,CG]2 [A,CG]2 | D,2 [A,DF]2 [A,DF]2 | %23
 C,2 [A,EG]2 [A,EG]2 | D,2 [A,DF]2 [A,DF]2 | G,,2 [G,B,E]2 [G,B,E]2 | [F,,F,]2 [F,CE]2 [F,B,E]2 | %27
 [F,,F,]2 [F,CE]2 [F,^A,E]2 | B,,2 [F,B,D]2 [F,B,D]2 | A,,2 [A,CG]2 [A,CG]2 | D,2 [A,DF]2 [A,DF]2 | %31
 C,2 [A,EG]2 [A,EG]2 | D,2 [A,DF]2 z2 | G,,2 [G,E]2 z2 | F,,2 [F,E]2 ^A,,2 | B,,2 [F,D]2 [F,D]2 | %36
 C,2 [F,CE]2 [F,CE]2 | ^A,,2 [F,CE]2 [F,CE]2 | B,,2 [F,B,D]2 [F,B,D]2 | B,,2 [F,B,D]2 [F,B,D]2 | %40
 B,,2 [^G,B,D]2 [G,B,D]2 | B,,2 [=G,B,E]2 [G,B,E]2 | B,,2 [F,^A,E]2 [F,A,E]2 | %43
 B,,2 [F,B,D]2 [F,B,D]2 | C,2 [F,CE]2 [F,CE]2 | F,,2 [F,^A,E]2 [F,A,E]2 | B,,2 [F,B,D]2 [F,B,D]2 | %47
 D,2 [F,B,D]2 [F,B,D]2 | E,2 [G,=C]2 z2 | F,2 [B,D]2 [^A,E]2 | B,,2 [F,D]!p! z ||[K:B] z2 | %52
 B,,2 [F,B,D]2 [F,B,D]2 | A,,2 [F,CE]2 [F,CE]2 | B,,2 [F,B,D]2 [F,B,D]2 | A,,2 [F,CE]2 [F,CE]2 | %56
 B,,2 [F,B,D]2 [F,B,D]2 | F,,2 [F,A,E]2 [F,A,E]2 | B,,2 [F,D]2 [F,D]2 | F,,2 [F,A,E]2 [F,A,E]2 | %60
 B,,2 [F,B,D]2 [F,B,D]2 | A,,2 [F,CE]2 [F,CE]2 | B,,2 [F,B,D]2 [F,B,D]2 | A,,2 [F,CE]2 [F,CE]2 | %64
 B,,2 [F,B,D]2 [F,B,D]2 | C,2 [A,CF]2 [A,CF]2 | C,2 [G,C^E]2 [G,CE]2 | F,,2 [F,CF]2 [F,C]2 | %68
 B,,2 [F,B,D]2 [F,B,D]2 | A,,2 [F,CE]2 [F,CE]2 | B,,2 [F,B,D]2 [F,B,D]2 | A,,2 [F,CE]2 [F,CE]2 | %72
 B,,2 [F,B,D]2 [F,B,D]2 | F,,2 [F,A,E]2 [F,A,E]2 | B,,2 [F,B,D]2 [F,B,D]2 | %75
 F,,2 [F,A,CE]2 [F,A,CE]2 | B,,2 [F,B,=D]2 [F,B,=D]2 | A,,2 [F,CE]2 [F,CE]2 | %78
 B,,2 [F,B,=D]2 [F,B,=D]2 | A,,2 [F,CE]2 [F,CE]2 | B,,2 [F,=D]2 B,,2 | =G,,2 [C,^E,B,]2 [C,E,B,]2 | %82
 F,,2 [C,F,A,]2 [C,F,A,]2 | F,,2!p! [F,A,=E]2 [F,A,E]2 |] %84
V:3
 x2 || x6 |: x6 | x6 | x6 | x6 | x6 | x6 | x6 | x6 | x6 | x6 | x6 | x6 | x6 | F,4 z2 |1 x6 | x6 :|2 %18
 x6 | x6 || x6 | x6 | x6 | x6 | x6 | x6 | x6 | x6 | x6 | x6 | x6 | x6 | x6 | x6 | x6 | x6 | x6 | %37
 x6 | x6 | x6 | x6 | x6 | x6 | x6 | x6 | x6 | x6 | x6 | x6 | F,4 z2 | x4 ||[K:B] x2 | x6 | x6 | %54
 x6 | x6 | x6 | x6 | x6 | x6 | x6 | x6 | x6 | x6 | x6 | x6 | x6 | x6 | x6 | x6 | x6 | x6 | x6 | %73
 x6 | x6 | x6 | x6 | x6 | x6 | x6 | x6 | x6 | x6 | x6 |] %84
V:4
 x2 || x6 |: x6 | x6 | x6 | x6 | x6 | x6 | x6 | x6 | x6 | x6 | x6 | x6 | x6 | x6 |1 x6 | x6 :|2 %18
 x6 | x6 || x6 | x6 | x6 | x6 | x6 | x6 | x6 | x6 | x6 | x6 | x6 | x6 | x6 | x6 | x6 | x6 | x6 | %37
 x6 | x6 | x6 | x6 | x6 | x6 | x6 | x6 | x6 | x6 | x6 | x6 | x6 | x4 ||[K:B] x2 | x6 | x6 | x6 | %55
 x6 | x6 | x6 | x6 | x6 | x6 | x6 | x6 | x6 | x6 | x6 | x6 | x6 | x6 | x6 | x6 | x6 | x6 | x6 | %74
 x6 | x6 | x6 | x6 | x6 | x6 | x6 | x6 | (F6 | F2) !1!F2 z2 |] %84

